packages/calcite-ui-icons/icons/trace-path-complete-32.svg

<?xml version="1.0" encoding="UTF-8"?><svg id="icons" xmlns="http://www.w3.org/2000/svg" viewBox="0 0 32 32"><defs><style>.cls-1{fill:none;}</style></defs><rect class="cls-1" width="32" height="32"/><path d="M29.20001,25h-.20001V3h-14v25H4V7h.20001c.99408,0,1.79999-.80591,1.79999-1.79999v-1.40002c0-.99414-.80591-1.79999-1.79999-1.79999h-1.40002c-.99408,0-1.79999.80585-1.79999,1.79999v1.40002c0,.99408.80591,1.79999,1.79999,1.79999h.20001v22h13V4h12v21h-.20001c-.99408,0-1.79999.80585-1.79999,1.79999v1.40002c0,.99408.80591,1.79999,1.79999,1.79999h1.40002c.99408,0,1.79999-.80591,1.79999-1.79999v-1.40002c0-.99414-.80591-1.79999-1.79999-1.79999ZM3,6h-.2002c-.44141,0-.7998-.3584-.7998-.7998v-1.40039c0-.44141.3584-.7998.7998-.7998h1.40039c.44141,0,.7998.3584.7998.7998v1.40039c0,.44141-.3584.7998-.7998.7998h-1.2002ZM30,28.2002c0,.44141-.3584.7998-.7998.7998h-1.40039c-.44141,0-.7998-.3584-.7998-.7998v-1.40039c0-.44141.3584-.7998.7998-.7998h1.40039c.44141,0,.7998.3584.7998.7998v1.40039Z"/></svg>

<svg xmlns="http://www.w3.org/2000/svg" viewBox="0 0 32 32"><path fill="none" d="M0 0h32v32H0z"/><path d="M29.2 25H29V3H15v25H4V7h.2A1.8 1.8 0 0 0 6 5.2V3.8A1.8 1.8 0 0 0 4.2 2H2.8A1.8 1.8 0 0 0 1 3.8v1.4A1.8 1.8 0 0 0 2.8 7H3v22h13V4h12v21h-.2a1.8 1.8 0 0 0-1.8 1.8v1.4a1.8 1.8 0 0 0 1.8 1.8h1.4a1.8 1.8 0 0 0 1.8-1.8v-1.4a1.8 1.8 0 0 0-1.8-1.8zM3 6h-.2a.8.8 0 0 1-.8-.8V3.8a.8.8 0 0 1 .8-.8h1.4a.8.8 0 0 1 .8.8v1.4a.8.8 0 0 1-.8.8H3zm27 22.2a.8.8 0 0 1-.8.8h-1.4a.8.8 0 0 1-.8-.8v-1.4a.8.8 0 0 1 .8-.8h1.4a.8.8 0 0 1 .8.8v1.4z"/></svg>
